X:5755
T:Salamonie Waltz
O:england
M:3/4
L:1/8
C:Fred Weaver
S:Fred Weaver, Gas City, IN
I:Fred named this tune after the Salamonie River,
I:which ran abouut 20 miles from his home.
R:Waltz
K:D
F2A2 A>B|A2F2D2|B2 G2 D2|G,4 DE|FA3 A>B|A2 F2 D2|
E4 EF|E2-(3E F ED2|F2A2 A>B|A2 F2 D2|B2 G2 D2|G,4zf|
f3 edB|A2F2A2|G2F2E2|D6::f3 efg|a2f2d2|
c3 d c B|A3zAB|c3 Bcd|e2f2g2|f2d2B2|A4z2|
d3 efg|a2f2d2|g4b2|b4z2|a3fdB|A2F2A2|G2F2E2|D6:|
variant of last part:
d3 efg|a2f2d2|B2d2g2|b4z2|a3fdB|A2F2A2|G2F2E2|D6:|
^^^^^^


